X:1
T:The Deaf Woman's Courtship
M:2/4
L:1/8
K:E
 B2 GE| B2 GE| FF FA| G2 E2| B3/2 E/2 EE| EE EE| F3/2 G/2 FA| G2 E2|\
